icons/Design/mark-pen-fill.svg

<svg viewBox="0 0 24 24" xmlns="http://www.w3.org/2000/svg"><path d="M15.9498 2.39006L21.6066 8.04692C21.9972 8.43744 21.9972 9.0706 21.6066 9.46113L13.8285 17.2393L11.7071 17.9464L10.2929 19.3606C9.90241 19.7511 9.26925 19.7511 8.87872 19.3606L4.63608 15.118C4.24556 14.7275 4.24556 14.0943 4.63608 13.7038L6.0503 12.2896L6.7574 10.1682L14.5356 2.39006C14.9261 1.99954 15.5593 1.99954 15.9498 2.39006ZM16.6569 5.9256L10.2929 12.2896L11.7071 13.7038L18.0711 7.33981L16.6569 5.9256ZM4.28253 16.8858L7.11096 19.7142L5.69674 21.1284L1.4541 19.7142L4.28253 16.8858Z"/></svg>

<svg xmlns="http://www.w3.org/2000/svg" viewBox="0 0 24 24">
    <g>
        <path fill="none" d="M0 0h24v24H0z"/>
        <path d="M15.95 2.393l5.657 5.657a1 1 0 0 1 0 1.414l-7.779 7.779-2.12.707-1.415 1.414a1 1 0 0 1-1.414 0l-4.243-4.243a1 1 0 0 1 0-1.414l1.414-1.414.707-2.121 7.779-7.779a1 1 0 0 1 1.414 0zm.707 3.536l-6.364 6.364 1.414 1.414 6.364-6.364-1.414-1.414zM4.282 16.889l2.829 2.829-1.414 1.414-4.243-1.414 2.828-2.829z"/>
    </g>
</svg>
